X: 3321
T: Trekant
B:[[Notböcker/Melodier til gamle danske Almuedanse for Violin solo]]
O:Danmark
Z:Søren Bak Vestergaard
M: 3/8
L: 1/8
K: G
(.G2 .B)|(.d2 .d)|(.g2 .g)|ecA|(.c2 .c)|(.e2 .e)|(.d2 .d)|dBG|\
(.g2 .g)|(.b2 .b)|(.d'2 .d')|d'bg|dfa|dfa|g>gg|g2 z||\
dgb|dgb|(.b2 .a)|a z !upbow!d|dfa|dfa|(.b2 .g)|g z d|\
dgb|dgb|(.b2 .a)|a z a|c'af|dfa|g>gg|g2 z|]
(:musicend:)
(:music:)
